packages/icons/src/emoji/svg/shopping-bag.svg

<svg width="120" height="120" viewBox="0 0 120 120" fill="none" xmlns="http://www.w3.org/2000/svg">
<path d="M20.625 45.9373H17.8125V23.831C17.8406 18.0091 18.75 7.55602 28.6781 5.26852C32.1656 4.46227 35.0156 4.94977 37.3594 6.71227C41.8125 10.0498 42.1312 16.3216 42.15 16.6029V35.6154H39.375V17.1279C39.375 17.1279 38.8875 11.5779 35.55 9.09352C33.9375 7.88414 31.7531 7.57477 29.1656 8.17477C25.0688 9.12164 22.5938 11.8029 21.3281 16.406C20.325 20.0435 20.7562 23.906 20.625 23.7654V45.9373Z" fill="#ED6C30"/>
<path d="M8.22168 36.2623L49.1623 25.2842L55.5186 27.3842L62.9529 26.8123L26.4186 37.2561L8.22168 36.2623Z" fill="#ED6C30"/>
<path d="M29.3908 113.316L19.8752 109.912C19.3127 109.716 18.7033 109.687 18.1314 109.837L10.9783 111.712C9.61895 112.069 8.27832 111.037 8.27832 109.631V36.1031L22.3127 35.475C22.6596 35.4562 23.0064 35.5312 23.3252 35.6906L26.4189 37.2562L29.3908 113.316Z" fill="#FBC21A"/>
<path d="M26.4189 37.2563V110.334C26.4189 112.397 28.4533 113.831 30.3939 113.147L60.9658 102.309C61.5472 102.104 62.0505 101.723 62.4064 101.219C62.7623 100.715 62.9534 100.114 62.9533 99.4969V26.7656L26.4189 37.2563Z" fill="#F79329"/>
<path d="M32.8124 48.7498H29.9999V28.3592C29.9999 27.778 29.8874 23.0905 31.078 18.0655C32.8124 10.7811 36.7968 6.3467 42.4499 5.24983C46.453 4.4717 49.7249 5.11858 52.0968 7.19045C56.3624 10.903 56.0624 17.728 56.0437 18.0186L56.0718 43.1248H53.4374V17.9623C53.4374 17.8311 53.5124 12.1592 50.3437 9.41233C48.6937 7.98733 46.228 7.56545 43.1812 8.15608C32.2968 10.2748 32.803 28.1248 32.8124 28.3123V48.7498Z" fill="#F79329"/>
<path d="M53.3621 53.8314L39.6934 58.2002C39.3821 58.2903 39.0542 58.3068 38.7354 58.2484C38.4167 58.19 38.1159 58.0584 37.8568 57.8638C37.5977 57.6692 37.3873 57.4171 37.2424 57.1273C37.0974 56.8375 37.0218 56.518 37.0215 56.1939V52.6596C37.0215 51.7314 37.6402 50.9064 38.5309 50.6533L52.1996 46.2846C52.5109 46.1945 52.8388 46.178 53.1575 46.2364C53.4763 46.2947 53.7771 46.4264 54.0362 46.621C54.2953 46.8155 54.5056 47.0677 54.6506 47.3575C54.7956 47.6473 54.8712 47.9668 54.8715 48.2908V51.8252C54.8715 52.7533 54.2527 53.5689 53.3621 53.8314Z" fill="#FBC21A"/>
<path d="M108.835 113.072H57.0658C54.6564 113.072 52.4346 111.553 52.4346 109.144V43.2095H113.438V109.144C113.438 111.553 111.244 113.072 108.835 113.072Z" fill="#BDCF46"/>
<path d="M113.391 96.7031V109.125C113.391 111.544 111.197 113.062 108.778 113.062H57.0189C54.6096 113.062 52.3877 111.544 52.3877 109.125V96.7031H113.391Z" fill="#95AD32"/>
<path d="M52.4346 33.2158H113.419V43.2096H52.4346V33.2158Z" fill="#454C29"/>
<path d="M56.7566 35.7188L59.166 37.1157C60.0191 37.6126 60.0191 38.8407 59.166 39.3376L56.766 40.7251L52.4348 43.2188L52.4254 38.222L52.416 33.2251L56.7566 35.7188ZM109.088 35.7188L106.688 37.1064C106.491 37.2199 106.328 37.3832 106.214 37.5799C106.101 37.7765 106.041 37.9996 106.041 38.2267C106.041 38.4537 106.101 38.6768 106.214 38.8734C106.328 39.0701 106.491 39.2334 106.688 39.347L109.079 40.7251L113.41 43.2188L113.419 38.222L113.429 33.2251L109.088 35.7188Z" fill="#757F3F"/>
<path d="M100.969 33.5999H97.8471V24.8905C97.8471 16.6405 91.1064 9.91865 82.8189 9.91865C74.5314 9.91865 67.7908 16.6312 67.7908 24.8905V33.5999H64.6689V24.8905C64.6689 14.9155 72.8064 6.80615 82.8189 6.80615C92.8314 6.80615 100.969 14.9155 100.969 24.8905V33.5999Z" fill="#454C29"/>
<path d="M26.4092 100.059V96.9654L52.3967 88.1904V91.2561L26.4092 100.059Z" fill="#FBC21A"/>
<path d="M56.9531 43.2002H61.5937V96.7033H56.9531V43.2002ZM75.8156 43.2002H80.4562V96.7033H75.8156V43.2002ZM85.2469 43.2002H89.8875V96.7033H85.2469V43.2002ZM94.6781 43.2002H99.3188V96.7033H94.6781V43.2002ZM66.3844 43.2002H71.025V96.7033H66.3844V43.2002ZM104.109 43.2002H108.75V96.7033H104.109V43.2002Z" fill="#95AD32"/>
<path d="M100.115 50.9623H97.1434V33.7123C97.1434 25.8467 90.7121 19.4436 82.8184 19.4436C74.9246 19.4436 68.4934 25.8467 68.4934 33.7123V50.9717H65.5215V33.7123C65.5215 24.2061 73.284 16.4717 82.8184 16.4717C92.3527 16.4717 100.115 24.2061 100.115 33.7123V50.9623Z" fill="#757F3F"/>
<path d="M66.8346 54.8532C68.3413 54.8532 69.5627 53.6318 69.5627 52.1251C69.5627 50.6184 68.3413 49.397 66.8346 49.397C65.3279 49.397 64.1064 50.6184 64.1064 52.1251C64.1064 53.6318 65.3279 54.8532 66.8346 54.8532Z" fill="#757F3F"/>
<path d="M98.5498 54.9375C100.103 54.9375 101.362 53.6783 101.362 52.125C101.362 50.5717 100.103 49.3125 98.5498 49.3125C96.9965 49.3125 95.7373 50.5717 95.7373 52.125C95.7373 53.6783 96.9965 54.9375 98.5498 54.9375Z" fill="#757F3F"/>
</svg>

<svg xmlns="http://www.w3.org/2000/svg" fill="none" aria-hidden="true" data-slot="icon" viewBox="0 0 120 120"><path fill="#ED6C30" d="M20.625 45.937h-2.812V23.831c.028-5.822.937-16.275 10.865-18.562 3.488-.807 6.338-.32 8.681 1.443 4.453 3.338 4.772 9.61 4.791 9.89v19.013h-2.775V17.128s-.487-5.55-3.825-8.034c-1.612-1.21-3.797-1.52-6.384-.92-4.097.948-6.572 3.629-7.838 8.232-1.003 3.638-.572 7.5-.703 7.36z"/><path fill="#ED6C30" d="m8.222 36.262 40.94-10.978 6.357 2.1 7.434-.572-36.534 10.444z"/><path fill="#FBC21A" d="m29.39 113.316-9.515-3.404a3 3 0 0 0-1.744-.075l-7.153 1.875a2.157 2.157 0 0 1-2.7-2.081V36.103l14.035-.628c.347-.019.693.056 1.012.216l3.094 1.565z"/><path fill="#F79329" d="M26.419 37.256v73.078a2.98 2.98 0 0 0 3.975 2.813l30.572-10.838a2.98 2.98 0 0 0 1.987-2.812V26.766z"/><path fill="#F79329" d="M32.812 48.75H30V28.36c0-.582-.113-5.27 1.078-10.294C32.812 10.78 36.797 6.345 42.45 5.25c4.003-.778 7.275-.131 9.647 1.94 4.265 3.713 3.965 10.538 3.947 10.829l.028 25.106h-2.635V17.962c0-.13.075-5.803-3.093-8.55-1.65-1.425-4.116-1.847-7.163-1.256-10.884 2.119-10.378 19.969-10.369 20.156z"/><path fill="#FBC21A" d="m53.362 53.831-13.669 4.37a2.09 2.09 0 0 1-2.671-2.007V52.66a2.09 2.09 0 0 1 1.509-2.007L52.2 46.285a2.09 2.09 0 0 1 2.671 2.006v3.534c0 .928-.618 1.744-1.509 2.006"/><path fill="#BDCF46" d="M108.835 113.072h-51.77c-2.409 0-4.63-1.519-4.63-3.928V43.209h61.003v65.935c0 2.409-2.194 3.928-4.603 3.928"/><path fill="#95AD32" d="M113.391 96.703v12.422c0 2.419-2.194 3.937-4.613 3.937h-51.76c-2.408 0-4.63-1.518-4.63-3.937V96.703z"/><path fill="#454C29" d="M52.435 33.216h60.984v9.994H52.435z"/><path fill="#757F3F" d="m56.757 35.719 2.409 1.397a1.284 1.284 0 0 1 0 2.222l-2.4 1.387-4.331 2.494-.01-4.997-.009-4.997zm52.331 0-2.4 1.387a1.295 1.295 0 0 0-.474 1.767c.114.197.277.36.474.474l2.391 1.378 4.331 2.494.009-4.997.01-4.997z"/><path fill="#454C29" d="M100.969 33.6h-3.122v-8.71c0-8.25-6.74-14.971-15.028-14.971S67.79 16.63 67.79 24.89v8.71h-3.122v-8.71c0-9.974 8.137-18.084 18.15-18.084s18.15 8.11 18.15 18.085z"/><path fill="#FBC21A" d="M26.41 100.059v-3.094l25.987-8.775v3.066z"/><path fill="#95AD32" d="M56.953 43.2h4.64v53.503h-4.64zm18.863 0h4.64v53.503h-4.64zm9.43 0h4.642v53.503h-4.641zm9.432 0h4.64v53.503h-4.64zm-28.294 0h4.641v53.503h-4.64zm37.725 0h4.641v53.503h-4.641z"/><path fill="#757F3F" d="M100.115 50.962h-2.972v-17.25c0-7.865-6.43-14.268-14.325-14.268-7.893 0-14.325 6.403-14.325 14.268v17.26h-2.971v-17.26c0-9.506 7.762-17.24 17.296-17.24 9.535 0 17.297 7.734 17.297 17.24z"/><path fill="#757F3F" d="M66.835 54.853a2.728 2.728 0 1 0 0-5.456 2.728 2.728 0 0 0 0 5.456m31.715.085a2.812 2.812 0 1 0 0-5.625 2.812 2.812 0 0 0 0 5.624"/></svg>
